svgs/sharp-light/bed-bunk.svg

<svg xmlns="http://www.w3.org/2000/svg" viewBox="0 0 576 512"><!--! Font Awesome Pro 6.6.0 by @fontawesome - https://fontawesome.com License - https://fontawesome.com/license (Commercial License) Copyright 2024 Fonticons, Inc. --><path d="M32 16L32 0 0 0 0 16 0 176 0 431.7 0 496l0 16 32 0 0-16 0-48.3 208 0 304 0 0 48.3 0 16 32 0 0-16 0-64.3L576 272l0-96 0-64C576 50.1 525.9 0 464 0L240 0 224 0l0 16 0 144L32 160 32 16zM224 272l0 143.7-192 0L32 192l208 0 304 0 0 64-304 0-16 0 0 16zM544 112l0 48-288 0 0-128 208 0c44.2 0 80 35.8 80 80zM256 288l288 0 0 127.7-288 0L256 288zM128 32a32 32 0 1 1 0 64 32 32 0 1 1 0-64zm0 96A64 64 0 1 0 128 0a64 64 0 1 0 0 128zm0 160a32 32 0 1 1 0 64 32 32 0 1 1 0-64zm0 96a64 64 0 1 0 0-128 64 64 0 1 0 0 128z"/></svg>

<svg xmlns="http://www.w3.org/2000/svg" viewBox="0 0 576 512"><!--! Font Awesome Pro 6.5.2 by @fontawesome - https://fontawesome.com License - https://fontawesome.com/license (Commercial License) Copyright 2024 Fonticons, Inc. --><path d="M32 16V0H0V16 176 431.7 496v16H32V496 447.7H240 544V496v16h32V496 431.7 272 176 112C576 50.1 525.9 0 464 0H240 224V16 160H32V16zM224 272V415.7H32V192H240 544v64H240 224v16zM544 112v48H256V32H464c44.2 0 80 35.8 80 80zM256 288H544V415.7H256V288zM128 32a32 32 0 1 1 0 64 32 32 0 1 1 0-64zm0 96A64 64 0 1 0 128 0a64 64 0 1 0 0 128zm0 160a32 32 0 1 1 0 64 32 32 0 1 1 0-64zm0 96a64 64 0 1 0 0-128 64 64 0 1 0 0 128z"/></svg>
